images/svg/logoipsum3.svg

<svg width="140" height="32" viewBox="0 0 140 32" fill="none" xmlns="http://www.w3.org/2000/svg">
<path d="M30.4376 11C30.8357 11 30.9684 11.1421 30.9684 11.5249V20.1849H35.4692C35.8562 20.1849 36 20.327 36 20.7097V21.4752C36 21.8579 35.8562 22 35.4692 22H29.5419C29.1548 22 29 21.8579 29 21.4752V11.5249C29 11.1421 29.1548 11 29.5419 11H30.4376Z" fill="#4A5D69"/>
<path d="M40 14.8836C40 12.459 41.6425 11 44.5 11C47.3575 11 49 12.459 49 14.8836V18.1164C49 20.541 47.3462 22 44.5 22C41.6537 22 40 20.541 40 18.1164V14.8836ZM47.11 14.8836C47.11 13.5191 46.1988 12.7844 44.5563 12.7844C42.9138 12.7844 42.0137 13.5296 42.0137 14.8836V18.1374C42.0137 19.5124 42.9138 20.2366 44.5563 20.2366C46.1988 20.2366 47.11 19.4809 47.11 18.1374V14.8836Z" fill="#4A5D69"/>
<path d="M62.4631 15.4913C62.8986 15.4913 62.9991 15.6401 62.9991 16.0405V18.2141C63.0109 18.7261 62.9107 19.2343 62.7059 19.7015C62.5012 20.1687 62.1969 20.583 61.8156 20.914C60.8684 21.6868 59.6742 22.0702 58.466 21.9894C55.5743 21.9894 54 20.3992 54 17.7565V14.21C54 11.6016 55.6301 10 58.466 10C60.6991 10 62.1505 10.9038 62.7646 12.7113C62.7989 12.7793 62.8174 12.8544 62.8184 12.9309C62.8194 13.0074 62.803 13.0831 62.7705 13.152C62.738 13.2208 62.6903 13.2809 62.6311 13.3276C62.5719 13.3742 62.5029 13.4061 62.4296 13.4206L61.5588 13.7295C61.1792 13.8668 61.0228 13.7867 60.8889 13.3863C60.7039 12.8977 60.3653 12.4861 59.9265 12.2168C59.4877 11.9474 58.9738 11.8356 58.466 11.8991C56.8248 11.8991 55.9316 12.7113 55.9316 14.1871V17.8251C55.9316 19.3238 56.8359 20.1132 58.466 20.1132C60.0961 20.1132 61.101 19.3467 61.101 18.2256V17.379H58.6782C58.2762 17.379 58.1311 17.2188 58.1311 16.8184V16.0405C58.1311 15.6401 58.2762 15.4913 58.6782 15.4913H62.4631Z" fill="#4A5D69"/>
<path d="M68 14.8836C68 12.459 69.6425 11 72.5 11C75.3575 11 77 12.459 77 14.8836V18.1164C77 20.541 75.3463 22 72.5 22C69.6538 22 68 20.541 68 18.1164V14.8836ZM75.0987 14.8836C75.0987 13.5191 74.1875 12.7844 72.5562 12.7844C70.925 12.7844 70.0025 13.5296 70.0025 14.8836V18.1374C70.0025 19.5124 70.9137 20.2366 72.5562 20.2366C74.1987 20.2366 75.0987 19.4809 75.0987 18.1374V14.8836Z" fill="#4A5D69"/>
<path d="M82 11.3171C82 11.0765 82.0686 11 82.2843 11H82.7353C82.951 11 83 11.0765 83 11.3171V21.6829C83 21.9235 83 22 82.7353 22H82.2843C82.0686 22 82 21.9235 82 21.6829V11.3171Z" fill="#4A5D69"/>
<path d="M93.4916 11C94.4221 11 95.3145 11.3617 95.9724 12.0056C96.6304 12.6495 97 13.5228 97 14.4334C97 15.344 96.6304 16.2173 95.9724 16.8612C95.3145 17.5051 94.4221 17.8668 93.4916 17.8668H90.1397V21.6829C90.1397 21.9235 90.0838 22 89.8492 22H89.324C89.0894 22 89 21.9235 89 21.6829V11.3171C89 11.0765 89.0894 11 89.324 11H93.4916ZM93.3911 16.7843C93.7109 16.7843 94.0277 16.7226 94.3232 16.6028C94.6187 16.4831 94.8872 16.3075 95.1134 16.0861C95.3396 15.8648 95.519 15.602 95.6414 15.3128C95.7638 15.0236 95.8268 14.7136 95.8268 14.4006C95.8268 14.0876 95.7638 13.7776 95.6414 13.4884C95.519 13.1992 95.3396 12.9364 95.1134 12.7151C94.8872 12.4937 94.6187 12.3181 94.3232 12.1983C94.0277 12.0786 93.7109 12.0169 93.3911 12.0169H90.0391V16.7843H93.3911Z" fill="#4A5D69"/>
<path d="M106.469 11.0227C107.368 10.9338 108.275 11.1072 109.055 11.5173C109.836 11.9273 110.448 12.5521 110.801 13.2989C110.894 13.466 110.801 13.6017 110.614 13.6853L110.102 13.8941C109.892 13.9672 109.811 13.9567 109.683 13.7583C109.419 13.2041 108.965 12.7395 108.388 12.4317C107.81 12.1238 107.138 11.9888 106.469 12.046C104.501 12.046 103.43 12.7455 103.43 13.9985C103.418 14.3814 103.562 14.7551 103.834 15.0506C104.105 15.3462 104.487 15.5436 104.909 15.6064C105.535 15.7896 106.184 15.9018 106.842 15.9406C107.637 15.9786 108.422 16.1229 109.17 16.3686C109.744 16.5314 110.238 16.8662 110.568 17.3168C110.899 17.7674 111.047 18.3064 110.987 18.8432C110.987 20.7957 109.403 21.9756 106.492 21.9756C105.537 22.0735 104.574 21.8751 103.763 21.4134C102.951 20.9518 102.341 20.2547 102.033 19.4384C102.012 19.4011 102.001 19.3603 102 19.3188C101.999 19.2773 102.008 19.2361 102.027 19.1982C102.046 19.1603 102.074 19.1266 102.109 19.0995C102.145 19.0724 102.186 19.0527 102.231 19.0416L102.743 18.8745C102.783 18.8597 102.827 18.8527 102.87 18.8537C102.914 18.8547 102.957 18.8639 102.996 18.8806C103.035 18.8973 103.071 18.9211 103.099 18.9507C103.128 18.9802 103.149 19.0147 103.162 19.052C103.423 19.6419 103.886 20.142 104.485 20.4799C105.083 20.8179 105.787 20.976 106.492 20.9314C108.693 20.9314 109.776 20.2423 109.776 18.8432C109.796 18.4754 109.671 18.113 109.421 17.8205C109.172 17.528 108.815 17.3243 108.414 17.2457C107.811 17.0846 107.19 16.9864 106.562 16.9534L105.305 16.8072C104.911 16.7323 104.522 16.6382 104.14 16.5253C103.763 16.423 103.411 16.2564 103.104 16.0345C102.795 15.7837 102.551 15.475 102.39 15.1304C102.229 14.7858 102.155 14.4136 102.172 14.0403C102.254 12.213 103.779 11.0227 106.469 11.0227Z" fill="#4A5D69"/>
<path d="M116.217 18.112C116.267 18.8694 116.634 19.5809 117.243 20.1012C117.852 20.6214 118.657 20.9111 119.494 20.9111C120.331 20.9111 121.136 20.6214 121.745 20.1012C122.354 19.5809 122.721 18.8694 122.772 18.112V11.3106C122.772 11.075 122.854 11 123.114 11H123.657C123.917 11 124 11.075 124 11.3106V18.1013C124 20.5326 122.417 22 119.5 22C116.583 22 115 20.5326 115 18.1013V11.3106C115 11.075 115.083 11 115.331 11H115.886C116.134 11 116.217 11.075 116.217 11.3106V18.112Z" fill="#4A5D69"/>
<path d="M139.682 11.0019C139.923 11.0019 140 11.0784 140 11.3189V21.683C140 21.9235 139.923 22 139.682 22H139.221C138.991 22 138.914 21.9235 138.914 21.683V15.3749C138.914 14.4571 138.977 13.5403 139.101 12.6308H139.035C138.693 13.4625 138.293 14.2697 137.84 15.0469L135.482 19.1903C135.454 19.2622 135.404 19.3237 135.339 19.3666C135.274 19.4096 135.198 19.432 135.121 19.4309H134.814C134.735 19.4312 134.657 19.4087 134.591 19.366C134.525 19.3233 134.473 19.2622 134.441 19.1903L132.05 15.0032C131.626 14.2371 131.259 13.4405 130.954 12.6199H130.888C131 13.5377 131.059 14.4612 131.064 15.3858V21.683C131.064 21.9235 130.987 22 130.746 22H130.318C130.077 22 130 21.9235 130 21.683V11.3189C130 11.0784 130.077 11.0019 130.318 11.0019H130.713C130.803 10.9935 130.894 11.0132 130.972 11.0582C131.051 11.1032 131.113 11.1714 131.151 11.2533L134.989 18.0534L138.805 11.3189C138.925 11.0893 138.991 11.0565 139.232 11.0565L139.682 11.0019Z" fill="#4A5D69"/>
<path d="M10.2588 19.9817V28.1025C10.2588 28.4138 10.1294 28.7123 9.89914 28.9325C9.66884 29.1526 9.3565 29.2762 9.03081 29.2762C8.70512 29.2762 8.39278 29.1526 8.16248 28.9325C7.93219 28.7123 7.80281 28.4138 7.80281 28.1025V19.993C8.14472 20.2316 8.55469 20.3649 8.97793 20.3749C9.43933 20.3875 9.89134 20.2487 10.2588 19.9817ZM20.7174 17.6343C20.4057 17.6343 20.1068 17.7526 19.8865 17.9632C19.6661 18.1739 19.5423 18.4596 19.5423 18.7575V20.1727C19.5423 20.484 19.6716 20.7825 19.9019 21.0027C20.1322 21.2228 20.4446 21.3464 20.7703 21.3464C21.096 21.3464 21.4083 21.2228 21.6386 21.0027C21.8689 20.7825 21.9983 20.484 21.9983 20.1727V18.8136C22.0074 18.6526 21.9802 18.4915 21.9184 18.3414C21.8566 18.1913 21.7617 18.0557 21.6401 17.9438C21.5186 17.8319 21.3733 17.7464 21.2141 17.6929C21.0548 17.6395 20.8854 17.6195 20.7174 17.6343ZM5.13528 23.0593C4.71243 23.0472 4.3031 22.9142 3.96016 22.6774V30.8206C3.96016 31.1334 4.09016 31.4334 4.32155 31.6546C4.55295 31.8757 4.86679 32 5.19404 32C5.52128 32 5.83513 31.8757 6.06652 31.6546C6.29792 31.4334 6.42792 31.1334 6.42792 30.8206V22.7336C6.04418 22.9707 5.59142 23.0848 5.13528 23.0593ZM16.8865 15.1969C16.7273 15.1893 16.5682 15.2127 16.4187 15.2657C16.2693 15.3188 16.1327 15.4003 16.0173 15.5054C15.9019 15.6104 15.81 15.7368 15.7473 15.8769C15.6846 16.017 15.6524 16.1678 15.6526 16.3201V22.5763C15.6526 22.8891 15.7826 23.1891 16.014 23.4103C16.2454 23.6315 16.5593 23.7557 16.8865 23.7557C17.2137 23.7557 17.5276 23.6315 17.759 23.4103C17.9904 23.1891 18.1204 22.8891 18.1204 22.5763V16.3987C18.1297 16.2366 18.1022 16.0745 18.0398 15.9236C17.9773 15.7726 17.8813 15.6364 17.7584 15.5243C17.6356 15.4122 17.4887 15.3269 17.3281 15.2743C17.1674 15.2216 16.9967 15.2029 16.8277 15.2194L16.8865 15.1969ZM12.9851 17.6006C12.5425 17.5977 12.1116 17.4643 11.7512 17.2187V25.3843C11.7512 25.6971 11.8812 25.9971 12.1126 26.2183C12.344 26.4395 12.6578 26.5637 12.9851 26.5637C13.3123 26.5637 13.6262 26.4395 13.8576 26.2183C14.089 25.9971 14.219 25.6971 14.219 25.3843V17.2299C13.8462 17.4953 13.3911 17.6337 12.9263 17.623L12.9851 17.6006ZM2.46776 23.8568V1.04458C2.46466 0.76651 2.34692 0.500841 2.1401 0.305261C1.93328 0.109682 1.65408 -1.57345e-05 1.36314 1.6928e-09H1.10461C0.813678 -1.57345e-05 0.534482 0.109682 0.327661 0.305261C0.12084 0.500841 0.00309508 0.76651 0 1.04458V23.8568C0 24.1368 0.116379 24.4054 0.323534 24.6034C0.53069 24.8014 0.811653 24.9126 1.10461 24.9126H1.36314C1.6561 24.9126 1.93707 24.8014 2.14422 24.6034C2.35138 24.4054 2.46776 24.1368 2.46776 23.8568ZM5.26455 22.1945H5.00602C4.71306 22.1945 4.43209 22.0832 4.22494 21.8852C4.01778 21.6872 3.90141 21.4187 3.90141 21.1386V3.76273C3.9045 3.48466 4.02224 3.21899 4.22906 3.02341C4.43588 2.82783 4.71508 2.71813 5.00602 2.71815H5.26455C5.55548 2.71813 5.83468 2.82783 6.0415 3.02341C6.24832 3.21899 6.36607 3.48466 6.36916 3.76273V21.1611C6.36916 21.4411 6.25278 21.7097 6.04562 21.9077C5.83847 22.1057 5.55751 22.2169 5.26455 22.2169V22.1945ZM9.1542 19.5212H8.88392C8.59407 19.5212 8.3161 19.4112 8.11115 19.2153C7.9062 19.0194 7.79106 18.7537 7.79106 18.4767V6.45841C7.7895 6.32029 7.81662 6.18325 7.87085 6.05521C7.92507 5.92718 8.00533 5.8107 8.10696 5.71251C8.2086 5.61432 8.3296 5.53637 8.46296 5.48317C8.59633 5.42998 8.73941 5.40259 8.88392 5.4026H9.1542C9.44512 5.40556 9.72307 5.5181 9.92769 5.71578C10.1323 5.91347 10.2471 6.18032 10.2471 6.45841V18.4767C10.2471 18.7537 10.1319 19.0194 9.92697 19.2153C9.72201 19.4112 9.44404 19.5212 9.1542 19.5212ZM13.0439 16.7694H12.7971C12.5061 16.7694 12.2269 16.6597 12.0201 16.4641C11.8133 16.2686 11.6956 16.0029 11.6925 15.7248V9.25518C11.6828 9.11096 11.7042 8.96639 11.7554 8.83041C11.8066 8.69443 11.8864 8.56995 11.99 8.46465C12.0935 8.35936 12.2186 8.2755 12.3574 8.21828C12.4962 8.16106 12.6459 8.13168 12.7971 8.13198H13.0556C13.3486 8.13198 13.6295 8.24321 13.8367 8.44121C14.0438 8.63922 14.1602 8.90777 14.1602 9.18778V15.7024C14.1618 15.8419 14.1343 15.9804 14.0795 16.1098C14.0247 16.2392 13.9436 16.357 13.8409 16.4562C13.7381 16.5554 13.6158 16.6342 13.4811 16.688C13.3463 16.7417 13.2017 16.7694 13.0556 16.7694H13.0439ZM16.9453 14.3545H16.6867C16.3938 14.3545 16.1128 14.2433 15.9056 14.0453C15.6985 13.8473 15.5821 13.5787 15.5821 13.2987V11.6251C15.5852 11.3471 15.7029 11.0814 15.9098 10.8858C16.1166 10.6902 16.3958 10.5805 16.6867 10.5806H16.9453C17.2362 10.5805 17.5154 10.6902 17.7222 10.8858C17.929 11.0814 18.0468 11.3471 18.0499 11.6251V13.2987C18.0499 13.5768 17.9351 13.8436 17.7305 14.0413C17.5259 14.239 17.2479 14.3516 16.957 14.3545H16.9453Z" fill="#4A5D69"/>
<rect x="5" y="30" width="1" height="1" fill="#4A5D69"/>
</svg>

<svg xmlns="http://www.w3.org/2000/svg" width="140" height="32" fill="none"><path fill="#4A5D69" d="M30.438 11c.398 0 .53.142.53.525v8.66h4.501c.387 0 .531.142.531.525v.765c0 .383-.144.525-.53.525h-5.928c-.387 0-.542-.142-.542-.525v-9.95c0-.383.155-.525.542-.525h.896ZM40 14.884C40 12.459 41.642 11 44.5 11s4.5 1.459 4.5 3.884v3.232C49 20.541 47.346 22 44.5 22S40 20.541 40 18.116v-3.232Zm7.11 0c0-1.365-.911-2.1-2.554-2.1-1.642 0-2.542.746-2.542 2.1v3.253c0 1.375.9 2.1 2.542 2.1 1.643 0 2.554-.756 2.554-2.1v-3.253ZM62.463 15.491c.436 0 .536.15.536.55v2.173a3.505 3.505 0 0 1-.293 1.488 3.425 3.425 0 0 1-.89 1.212 4.79 4.79 0 0 1-3.35 1.075C55.574 21.99 54 20.4 54 17.756V14.21c0-2.608 1.63-4.21 4.466-4.21 2.233 0 3.684.904 4.299 2.711a.502.502 0 0 1-.134.617.475.475 0 0 1-.201.093l-.871.309c-.38.137-.536.057-.67-.344a2.343 2.343 0 0 0-.963-1.17 2.254 2.254 0 0 0-1.46-.317c-1.641 0-2.534.812-2.534 2.288v3.638c0 1.499.904 2.288 2.534 2.288s2.635-.766 2.635-1.887v-.847h-2.423c-.402 0-.547-.16-.547-.56v-.778c0-.4.145-.55.547-.55h3.785ZM68 14.884C68 12.459 69.642 11 72.5 11s4.5 1.459 4.5 3.884v3.232C77 20.541 75.346 22 72.5 22S68 20.541 68 18.116v-3.232Zm7.099 0c0-1.365-.912-2.1-2.543-2.1-1.631 0-2.553.746-2.553 2.1v3.253c0 1.375.91 2.1 2.553 2.1 1.643 0 2.543-.756 2.543-2.1v-3.253ZM82 11.317c0-.24.069-.317.284-.317h.451c.216 0 .265.076.265.317v10.366c0 .24 0 .317-.265.317h-.45c-.216 0-.285-.076-.285-.317V11.317ZM93.492 11c.93 0 1.822.362 2.48 1.006A3.396 3.396 0 0 1 97 14.433c0 .911-.37 1.784-1.028 2.428a3.547 3.547 0 0 1-2.48 1.006H90.14v3.816c0 .24-.056.317-.29.317h-.526c-.235 0-.324-.076-.324-.317V11.317c0-.24.09-.317.324-.317h4.168Zm-.1 5.784c.319 0 .636-.061.931-.181.296-.12.564-.296.79-.517a2.38 2.38 0 0 0 .528-.773 2.34 2.34 0 0 0-.528-2.598 2.44 2.44 0 0 0-.79-.517 2.484 2.484 0 0 0-.932-.181H90.04v4.767h3.352ZM106.469 11.023a4.605 4.605 0 0 1 2.586.494c.781.41 1.393 1.035 1.746 1.782.093.167 0 .303-.187.386l-.512.21c-.21.072-.291.062-.419-.137a2.966 2.966 0 0 0-1.295-1.326 3.468 3.468 0 0 0-1.919-.386c-1.968 0-3.039.7-3.039 1.953-.012.382.132.756.404 1.052a1.82 1.82 0 0 0 1.075.555 8.71 8.71 0 0 0 1.933.335c.795.038 1.58.182 2.328.428a2.605 2.605 0 0 1 1.398.948c.331.45.479.99.419 1.526 0 1.953-1.584 3.133-4.495 3.133a4.592 4.592 0 0 1-2.729-.563c-.812-.461-1.422-1.158-1.73-1.975a.255.255 0 0 1-.006-.24.29.29 0 0 1 .082-.099.335.335 0 0 1 .122-.057l.512-.168a.346.346 0 0 1 .253.007.31.31 0 0 1 .103.07c.029.03.05.064.063.101a3.09 3.09 0 0 0 1.323 1.428 3.63 3.63 0 0 0 2.007.451c2.201 0 3.284-.689 3.284-2.088.02-.368-.105-.73-.355-1.023a1.765 1.765 0 0 0-1.007-.574 9.008 9.008 0 0 0-1.852-.293l-1.257-.146a12.053 12.053 0 0 1-1.165-.282 3.199 3.199 0 0 1-1.036-.49 2.57 2.57 0 0 1-.714-.905 2.32 2.32 0 0 1-.218-1.09c.082-1.827 1.607-3.017 4.297-3.017ZM116.217 18.112c.05.757.417 1.469 1.026 1.99.609.52 1.414.81 2.251.81s1.642-.29 2.251-.81c.609-.521.976-1.233 1.027-1.99v-6.801c0-.236.082-.311.342-.311h.543c.26 0 .343.075.343.31v6.791c0 2.432-1.583 3.899-4.5 3.899s-4.5-1.467-4.5-3.899v-6.79c0-.236.083-.311.331-.311h.555c.248 0 .331.075.331.31v6.802ZM139.682 11.002c.241 0 .318.076.318.317v10.364c0 .24-.077.317-.318.317h-.461c-.23 0-.307-.076-.307-.317v-6.308c0-.918.063-1.835.187-2.744h-.066a19.608 19.608 0 0 1-1.195 2.416l-2.358 4.143a.385.385 0 0 1-.361.24h-.307a.409.409 0 0 1-.373-.24l-2.391-4.187a17.55 17.55 0 0 1-1.096-2.383h-.066a23.9 23.9 0 0 1 .176 2.766v6.297c0 .24-.077.317-.318.317h-.428c-.241 0-.318-.076-.318-.317V11.319c0-.24.077-.317.318-.317h.395a.438.438 0 0 1 .438.251l3.838 6.8 3.816-6.734c.12-.23.186-.263.427-.263l.45-.054ZM10.259 19.982v8.12c0 .312-.13.61-.36.83-.23.22-.542.344-.868.344-.326 0-.638-.123-.869-.343-.23-.22-.36-.52-.36-.83v-8.11a2.144 2.144 0 0 0 2.457-.011Zm10.458-2.348c-.311 0-.61.119-.83.33-.22.21-.345.496-.345.794v1.415c0 .311.13.61.36.83.23.22.543.343.868.343.326 0 .638-.123.869-.343.23-.22.36-.519.36-.83v-1.36a1.08 1.08 0 0 0-.08-.472 1.12 1.12 0 0 0-.279-.397 1.186 1.186 0 0 0-.426-.251 1.226 1.226 0 0 0-.497-.059ZM5.135 23.06a2.18 2.18 0 0 1-1.175-.382v8.144c0 .312.13.612.362.834.23.22.545.345.872.345.327 0 .641-.124.873-.345.23-.222.36-.522.36-.834v-8.087a2.226 2.226 0 0 1-1.292.325Zm11.752-7.862a1.226 1.226 0 0 0-.468.069c-.15.053-.286.134-.402.24a1.123 1.123 0 0 0-.27.37 1.08 1.08 0 0 0-.094.444v6.256c0 .313.13.613.361.834.231.221.545.346.873.346.327 0 .64-.125.872-.346.231-.22.361-.52.361-.834V16.4a1.08 1.08 0 0 0-.08-.475 1.122 1.122 0 0 0-.282-.4 1.185 1.185 0 0 0-.43-.25 1.225 1.225 0 0 0-.5-.055l.059-.022ZM12.985 17.6a2.219 2.219 0 0 1-1.234-.382v8.165c0 .313.13.613.362.834.231.221.545.346.872.346.327 0 .641-.125.873-.346.231-.22.361-.52.361-.834V17.23a2.146 2.146 0 0 1-1.293.393l.06-.022ZM2.468 23.857V1.045a1.033 1.033 0 0 0-.328-.74A1.131 1.131 0 0 0 1.363 0h-.258C.814 0 .535.11.328.305a1.033 1.033 0 0 0-.328.74v22.812c0 .28.116.548.324.746.207.198.488.31.78.31h.26c.292 0 .573-.112.78-.31.207-.198.324-.466.324-.746Zm2.797-1.662h-.259c-.293 0-.574-.112-.781-.31a1.033 1.033 0 0 1-.324-.746V3.763c.004-.278.121-.544.328-.74.207-.195.486-.305.777-.305h.259c.29 0 .57.11.777.305.206.196.324.462.327.74V21.16c0 .28-.116.549-.323.747-.208.198-.488.309-.781.309v-.022Zm3.89-2.674h-.271c-.29 0-.568-.11-.773-.306a1.022 1.022 0 0 1-.32-.738V6.458a1.004 1.004 0 0 1 .08-.403c.054-.128.134-.244.236-.342.102-.099.223-.177.356-.23.133-.053.276-.08.42-.08h.271c.291.003.57.115.774.313.204.197.32.464.32.742v12.019c0 .277-.116.542-.321.738a1.119 1.119 0 0 1-.773.306Zm3.889-2.752h-.247c-.29 0-.57-.11-.777-.305a1.033 1.033 0 0 1-.327-.74V9.256c-.01-.144.011-.289.062-.425.052-.136.131-.26.235-.365.104-.106.229-.19.367-.247.14-.057.289-.086.44-.086h.259c.293 0 .574.111.78.31.208.197.324.466.324.746v6.514c.002.14-.026.278-.08.408-.055.13-.136.247-.24.346-.102.1-.224.178-.359.232a1.15 1.15 0 0 1-.425.081h-.012Zm3.901-2.414h-.258c-.293 0-.574-.112-.781-.31a1.033 1.033 0 0 1-.324-.746v-1.674c.003-.278.12-.544.328-.74a1.13 1.13 0 0 1 .777-.304h.258c.291 0 .57.11.777.305.207.195.325.461.328.74v1.673c0 .278-.115.545-.32.742a1.13 1.13 0 0 1-.773.313h-.012Z"/><path fill="#4A5D69" d="M5 30h1v1H5z"/></svg>
